images/logo-icon-gradient.svg

<svg height="94" viewBox="0 0 98 94" width="98" xmlns="http://www.w3.org/2000/svg" xmlns:xlink="http://www.w3.org/1999/xlink"><linearGradient id="a" x1="25.500579%" x2="73.120064%" y1="13.681176%" y2="84.309244%"><stop offset="0" stop-color="#ff5274"/><stop offset="1" stop-color="#6446fa"/></linearGradient><path d="m29.5003321 76.3978031c1.9735578-3.8680525 5.9897885-6.5161222 10.6233294-6.5161222 6.5851334 0 11.9234387 5.3485067 11.9234387 11.9462241 0 6.5977173-5.3383053 11.946224-11.9234387 11.946224-4.6335409 0-8.6497716-2.6480696-10.6233294-6.5161222h-11.0556499c-10.17702423 0-18.42713244-8.265874-18.42713244-18.4623462 0-10.1964723 8.25010821-18.4623463 18.42713244-18.4623463h25.9764415l-4.3868122-6.5161222h-21.5896293c-10.17702423 0-18.42713244-8.2658739-18.42713244-18.4623462s8.25010821-18.46234622 18.42713244-18.46234622c5.9010046 0 10.8398383 2.28279593 14.4207134 6.97006662.2335492.3057097 1.1309046 1.6099858 3.2449682 4.7050946l9.686801 14.3893276h33.3486596c4.1905393 0 7.5876427-3.4035952 7.5876427-7.6021426s-3.3971034-7.6021426-7.5876427-7.6021426h-11.0556499c-1.9735578 3.8680526-5.9897886 6.5161222-10.6233295 6.5161222-6.5851333 0-11.9234386-5.3485066-11.9234386-11.946224 0-6.59771734 5.3383053-11.94622402 11.9234386-11.94622402 4.6335409 0 8.6497717 2.64806962 10.6233295 6.5161222h11.0556499c10.1770242 0 18.4271324 8.26587392 18.4271324 18.46234622s-8.2501082 18.4623462-18.4271324 18.4623462h-26.0376417l4.3866108 6.5161222h21.6510309c10.1770242 0 18.4271324 8.265874 18.4271324 18.4623463 0 10.1964722-8.2501082 18.4623462-18.4271324 18.4623462-5.6334016 0-10.8595819-2.5556037-14.5407651-7.1331233l-2.6811219-3.7930842-10.1914599-15.1382813h-33.2877953c-4.1905394 0-7.5876428 3.4035952-7.5876428 7.6021426s3.3971034 7.6021425 7.5876428 7.6021425zm41.3387217-6.2421622 2.4019087 3.4147959c1.4365903 1.779581 3.5792992 2.8273663 5.9048619 2.8273663 4.1905393 0 7.5876427-3.4035951 7.5876427-7.6021425s-3.3971034-7.6021426-7.5876427-7.6021426h-14.340013zm-43.6944371-45.4846581c-1.7049125-2.4959116-2.8445878-4.1523915-2.886699-4.207514-1.4619344-1.9136334-3.1865312-2.7107655-5.8132355-2.7107655-4.1905394 0-7.5876428 3.4035952-7.5876428 7.6021426s3.3971034 7.6021426 7.5876428 7.6021426h14.2782755z" fill="url(#a)"/></svg>

<?xml version="1.0" encoding="UTF-8"?>
<svg width="98px" height="94px" viewBox="0 0 98 94" version="1.1" xmlns="http://www.w3.org/2000/svg" xmlns:xlink="http://www.w3.org/1999/xlink">
    <!-- Generator: Sketch 52.6 (67491) - http://www.bohemiancoding.com/sketch -->
    <title>Shape</title>
    <desc>Created with Sketch.</desc>
    <defs>
        <linearGradient x1="25.5005787%" y1="13.6811756%" x2="73.1200638%" y2="84.3092438%" id="linearGradient-1">
            <stop stop-color="#FF5274" offset="0%"></stop>
            <stop stop-color="#6446FA" offset="100%"></stop>
        </linearGradient>
    </defs>
    <g id="Page-1" stroke="none" stroke-width="1" fill="none" fill-rule="evenodd">
        <g id="Logos-Source" transform="translate(-368.000000, -256.000000)" fill="url(#linearGradient-1)" fill-rule="nonzero">
            <g id="Main-Logo" transform="translate(64.000000, 200.000000)">
                <g id="Fission-Main-Logo" transform="translate(304.000000, 56.000000)">
                    <path d="M29.5003321,76.3978031 C31.4738899,72.5297506 35.4901206,69.8816809 40.1236615,69.8816809 C46.7087949,69.8816809 52.0471002,75.2301876 52.0471002,81.827905 C52.0471002,88.4256223 46.7087949,93.774129 40.1236615,93.774129 C35.4901206,93.774129 31.4738899,91.1260594 29.5003321,87.2580068 L18.4446822,87.2580068 C8.26765797,87.2580068 0.0175497576,78.9921328 0.0175497576,68.7956606 C0.0175497576,58.5991883 8.26765797,50.3333143 18.4446822,50.3333143 L44.4211237,50.3333143 L40.0343115,43.8171921 L18.4446822,43.8171921 C8.26765797,43.8171921 0.0175497576,35.5513182 0.0175497576,25.3548459 C0.0175497576,15.1583736 8.26765797,6.89249968 18.4446822,6.89249968 C24.3456868,6.89249968 29.2845205,9.17529561 32.8653956,13.8625663 C33.0989448,14.168276 33.9963002,15.4725521 36.1103638,18.5676609 L45.7971648,32.9569885 L79.1458244,32.9569885 C83.3363637,32.9569885 86.7334671,29.5533933 86.7334671,25.3548459 C86.7334671,21.1562985 83.3363637,17.7527033 79.1458244,17.7527033 L68.0901745,17.7527033 C66.1166167,21.6207559 62.1003859,24.2688255 57.466845,24.2688255 C50.8817117,24.2688255 45.5434064,18.9203189 45.5434064,12.3226015 C45.5434064,5.72488416 50.8817117,0.376377481 57.466845,0.376377481 C62.1003859,0.376377481 66.1166167,3.0244471 68.0901745,6.89249968 L79.1458244,6.89249968 C89.3228486,6.89249968 97.5729568,15.1583736 97.5729568,25.3548459 C97.5729568,35.5513182 89.3228486,43.8171921 79.1458244,43.8171921 L53.1081827,43.8171921 L57.4947935,50.3333143 L79.1458244,50.3333143 C89.3228486,50.3333143 97.5729568,58.5991883 97.5729568,68.7956606 C97.5729568,78.9921328 89.3228486,87.2580068 79.1458244,87.2580068 C73.5124228,87.2580068 68.2862425,84.7024031 64.6050593,80.1248835 L61.9239374,76.3317993 L51.7324775,61.193518 L18.4446822,61.193518 C14.2541428,61.193518 10.8570394,64.5971132 10.8570394,68.7956606 C10.8570394,72.994208 14.2541428,76.3978031 18.4446822,76.3978031 L29.5003321,76.3978031 Z M70.8390538,70.1556409 L73.2409625,73.5704368 C74.6775528,75.3500178 76.8202617,76.3978031 79.1458244,76.3978031 C83.3363637,76.3978031 86.7334671,72.994208 86.7334671,68.7956606 C86.7334671,64.5971132 83.3363637,61.193518 79.1458244,61.193518 L64.8058114,61.193518 L70.8390538,70.1556409 Z M27.1446167,24.6709828 C25.4397042,22.1750712 24.3000289,20.5185913 24.2579177,20.4634688 C22.7959833,18.5498354 21.0713865,17.7527033 18.4446822,17.7527033 C14.2541428,17.7527033 10.8570394,21.1562985 10.8570394,25.3548459 C10.8570394,29.5533933 14.2541428,32.9569885 18.4446822,32.9569885 L32.7229577,32.9569885 L27.1446167,24.6709828 Z" id="Shape"></path>
                </g>
            </g>
        </g>
    </g>
</svg>
